build-source/logos/cineplusclub.default.svg

<svg xmlns="http://www.w3.org/2000/svg" viewBox="0 0 600 310.32"><defs><clipPath id="0"><path d="m45.29 283.84h19.899v10.417h-19.899v-10.417"/></clipPath></defs><g transform="translate(28.571-557.2)"><g clip-path="url(#0)" transform="matrix(30.1523 0 0-30.1523-1394.26 9429.69)"><path d="m61.983 294.26h-16.69v-5.271h16.69v5.271" fill="#443a3d"/><g fill="#fff"><path d="m0 0c0-.043-.035-.078-.11-.106-.209-.07-.402-.106-.583-.106-.272 0-.532.067-.784.204-.504.278-.784.745-.784 1.321 0 .317.087.603.256.862.173.258.406.45.698.572.188.082.389.121.606.121.146 0 .303-.023.473-.066.051-.012.09-.028.126-.044l.043-.019c.035-.016.055-.043.055-.078v-.757c0-.019-.008-.027-.02-.027-.004 0-.015.008-.035.02-.059.058-.146.105-.26.145-.122.043-.233.062-.327.062-.343 0-.63-.18-.76-.482-.043-.098-.063-.204-.063-.317 0-.224.083-.404.248-.545.153-.129.343-.196.567-.196.256 0 .453.071.599.216.012.015.023.023.031.023.016 0 .024-.023.024-.074v-.729" transform="translate(48.45 290.4)"/><path d="m49.01 293.21h.768v-2.939h-.768v2.939"/><path d="m0 0l-1.41 1.798v-1.798h-.768v2.939h.768l1.41-1.799v1.799h.768v-2.939h-.768" transform="translate(52.57 290.27)"/><path d="m0 0v2.939h.256l.043.121h1.166l-.043-.121h.256v-.647h-.91v-.49h.863v-.646h-.863v-.51h.91v-.646h-1.678" transform="translate(53.874 290.27)"/></g><path d="m0 0c-5.273-.57-10.546-1.141-15.819-1.71-.196 2.202-.294 3.304-.489 5.506 5.257.298 10.515.597 15.771.895.215-1.876.322-2.814.537-4.691" fill="#0994dc" transform="translate(65.19 285.67)"/><g fill="#fff"><path d="m0 0c.011-.115.02-.22.029-.318.009-.098.018-.19.026-.279.008-.089.016-.175.024-.26.008-.086.016-.171.024-.26.008-.089.016-.181.025-.279.009-.099.019-.204.03-.318.12.011.23.022.331.032.102.009.196.018.288.027.092.008.181.017.273.026.092.008.186.018.288.027.102.0001.211.02.331.031-.0001.115-.018.201-.026.286-.008.085-.016.17-.027.284.114-.016.2-.028.286-.039.086-.012.172-.024.286-.039.012-.124.018-.187.03-.311.011-.123.012-.225 0-.309-.013-.083-.039-.15-.081-.202-.041-.052-.099-.089-.175-.117-.075-.028-.168-.046-.281-.057-.115-.012-.219-.022-.316-.032-.096-.0001-.186-.019-.273-.028-.088-.009-.173-.017-.26-.026-.088-.009-.178-.018-.274-.028-.097-.0001-.2-.02-.315-.031-.114-.012-.208-.013-.287 0-.079.013-.143.04-.194.084-.051.044-.089.105-.117.188-.028.083-.047.187-.059.314-.0001.115-.02.219-.028.316-.009.096-.017.186-.025.273-.008.087-.016.173-.024.26-.008.087-.016.177-.025.273-.009.096-.018.2-.028.315-.012.128-.013.234 0 .32.013.086.039.153.081.205.042.052.1.088.175.114.075.025.168.039.282.046.114.008.218.015.315.021.096.006.186.011.273.017.088.006.173.011.26.017.087.005.177.0001.274.017.097.006.2.013.315.02.114.008.208.005.287-.0001.079-.015.143-.043.194-.087.05-.045.089-.105.117-.186.028-.081.047-.181.059-.305.009-.1.014-.15.024-.249-.111-.028-.193-.049-.276-.07-.083-.021-.166-.042-.276-.07-.009.1-.016.176-.023.251-.007.076-.015.152-.024.252-.121-.008-.23-.016-.332-.023-.101-.007-.195-.014-.287-.02-.092-.006-.182-.012-.274-.019-.092-.006-.186-.013-.288-.02-.101-.007-.21-.015-.331-.023" transform="translate(51.45 287.8)"/><path d="m0 0c.097.006.17.012.243.016.073.005.145.001.242.016.011-.115.022-.22.031-.318.001-.099.019-.19.027-.279.009-.088.017-.173.025-.258.009-.085.017-.17.026-.258.008-.088.017-.18.026-.278.001-.097.02-.202.031-.316.124.012.235.022.34.032.104.009.201.018.295.027.094.009.186.017.28.027.094.008.191.018.295.027.104.001.215.02.339.032.008-.077.014-.135.02-.194.005-.057.011-.115.019-.194-.116-.011-.224-.022-.326-.032-.102-.001-.198-.02-.291-.029-.092-.009-.181-.018-.269-.027-.088-.009-.174-.017-.262-.026-.088-.008-.177-.017-.27-.026-.092-.009-.189-.019-.291-.029-.102-.001-.21-.021-.326-.033-.012.123-.022.236-.033.343-.001.107-.02.206-.029.303-.009.096-.018.188-.027.279-.009.091-.017.181-.026.272-.009.091-.018.183-.027.279-.009.096-.019.196-.029.302-.001.107-.021.219-.033.342" transform="translate(54.56 288.17)"/><path d="m0 0c.11.001.209.02.301.029.092.008.178.016.261.024.084.008.165.015.248.023.084.008.169.016.262.025.092.008.191.018.3.028-.011.107-.021.205-.03.297-.001.092-.019.177-.027.259-.009.083-.017.163-.025.242-.008.08-.017.159-.026.241-.008.084-.017.17-.026.262-.001.092-.02.192-.032.3.097.007.17.012.243.017.073.005.146.001.243.016.012-.122.024-.23.034-.331.011-.1.021-.193.03-.284.009-.09.019-.177.028-.267.009-.091.019-.183.03-.282.001-.1.021-.207.033-.327.013-.122.009-.216-.017-.289-.026-.073-.073-.125-.147-.161-.074-.037-.174-.058-.304-.071-.105-.001-.199-.019-.287-.028-.088-.009-.169-.017-.249-.025-.079-.008-.157-.016-.236-.024-.079-.007-.161-.015-.249-.024-.088-.009-.182-.018-.286-.029-.131-.012-.233-.011-.312.011-.079.022-.135.065-.175.134-.04.069-.063.164-.076.291-.012.123-.023.235-.034.339-.001.103-.02.199-.029.293-.001.094-.019.185-.029.279-.009.094-.018.19-.029.295-.001.104-.022.216-.034.342.096.007.168.012.24.017.072.005.144.001.24.016.012-.111.022-.212.031-.307.001-.094.019-.182.027-.267.009-.085.017-.166.026-.247.008-.082.016-.163.025-.247.008-.085.017-.172.026-.266.001-.094.02-.194.031-.304" transform="translate(57.872 286.74)"/><path d="m0 0c.001-.096.018-.169.026-.241.008-.073.016-.146.026-.244.108.001.202.02.29.028.088.008.169.016.249.023.081.008.162.015.25.024.087.008.181.017.289.026.082.008.139.022.175.05.035.028.048.072.04.141-.006.056-.009.084-.015.14-.007.067-.03.107-.07.129-.041.02-.1.023-.182.016-.107-.009-.202-.017-.29-.025-.087-.007-.168-.014-.249-.021-.081-.007-.162-.014-.249-.021-.088-.008-.182-.016-.29-.025m-.081.76c.009-.09.016-.158.024-.225.007-.067.014-.134.023-.223.108.008.203.016.29.023.088.007.169.014.25.02.081.006.161.013.249.019.088.008.182.015.29.024.144.011.212.039.2.148-.008.07-.011.105-.02.175-.011.11-.079.127-.228.117-.108-.008-.202-.015-.29-.021-.088-.007-.169-.013-.249-.018-.081-.006-.162-.012-.25-.018-.087-.006-.182-.013-.289-.021m-.51.282c.118.008.226.015.328.022.102.007.197.014.289.02.092.006.181.012.269.018.089.006.178.012.269.018.092.007.187.013.289.02.102.007.211.014.329.022.106.007.194.002.266-.018.072-.02.127-.055.167-.107.04-.051.064-.12.074-.207.001-.089.015-.133.025-.221.009-.084-.014-.156-.065-.213-.052-.057-.237-.126-.237-.126 0-.0001.206-.042.272-.097.066-.055.106-.131.117-.224.001-.094.015-.141.026-.236.009-.082-.006-.153-.046-.213-.039-.059-.103-.107-.19-.144-.087-.036-.199-.061-.335-.075-.109-.001-.209-.02-.304-.03-.094-.009-.182-.018-.267-.026-.086-.009-.168-.017-.25-.025-.082-.008-.164-.017-.249-.025-.085-.008-.174-.017-.268-.027-.094-.009-.195-.019-.304-.029-.013.113-.024.217-.034.313-.001.098-.02.189-.029.276-.001.087-.018.17-.027.252-.009.082-.017.163-.026.245-.009.082-.018.165-.027.251-.009.087-.019.178-.029.274-.001.097-.021.2-.033.312" transform="translate(61.32 287.54)"/><path d="m0 0v-1.058c0-.039-.008-.055-.039-.055h-.807c-.027 0-.043.02-.043.047v1.058c0 .043-.016.059-.051.059h-1.046c-.031 0-.047.02-.047.055v.802c0 .032.012.047.043.047h1.054c.031 0 .047.016.047.051v.909c0 .024.016.039.039.039h.803c.031 0 .047-.012.047-.039v-.909c0-.042.008-.051.043-.051h1.055c.031 0 .043-.015.043-.051v-.806c0-.027-.016-.047-.043-.047h-1.043c-.043 0-.055-.008-.055-.051" transform="translate(59.816 291.32)"/></g></g></g></svg>

<?xml version="1.0" encoding="UTF-8" standalone="no"?>
<!-- Created with Inkscape (http://www.inkscape.org/) -->

<svg
   xmlns:dc="http://purl.org/dc/elements/1.1/"
   xmlns:cc="http://creativecommons.org/ns#"
   xmlns:rdf="http://www.w3.org/1999/02/22-rdf-syntax-ns#"
   xmlns:svg="http://www.w3.org/2000/svg"
   xmlns="http://www.w3.org/2000/svg"
   version="1.1"
   width="600"
   height="310.32413"
   id="svg129607">
  <defs
     id="defs129609">
    <clipPath
       id="clipPath122075">
      <path
         d="m 45.293,283.839 19.899,0 0,10.417 -19.899,0 0,-10.417 z"
         id="path122077" />
    </clipPath>
  </defs>
  <metadata
     id="metadata129612">
    <rdf:RDF>
      <cc:Work
         rdf:about="">
        <dc:format>image/svg+xml</dc:format>
        <dc:type
           rdf:resource="http://purl.org/dc/dcmitype/StillImage" />
        <dc:title></dc:title>
      </cc:Work>
    </rdf:RDF>
  </metadata>
  <g
     transform="translate(28.57138,-557.20003)"
     id="layer1">
    <g
       transform="matrix(30.152269,0,0,-30.152269,-1394.2581,9429.6861)"
       id="g122071">
      <g
         clip-path="url(#clipPath122075)"
         id="g122073">
        <path
           d="m 61.983,294.256 -16.69,0 0,-5.271 16.69,0 0,5.271 z"
           id="path122079"
           style="fill:#443a3d;fill-opacity:1;fill-rule:nonzero;stroke:none" />
        <g
           transform="translate(48.445297,290.40401)"
           id="g122081">
          <path
             d="m 0,0 c 0,-0.043 -0.035,-0.078 -0.11,-0.106 -0.209,-0.07 -0.402,-0.106 -0.583,-0.106 -0.272,0 -0.532,0.067 -0.784,0.204 -0.504,0.278 -0.784,0.745 -0.784,1.321 0,0.317 0.087,0.603 0.256,0.862 0.173,0.258 0.406,0.45 0.698,0.572 0.188,0.082 0.389,0.121 0.606,0.121 0.146,0 0.303,-0.023 0.473,-0.066 0.051,-0.012 0.09,-0.028 0.126,-0.044 l 0.043,-0.019 c 0.035,-0.016 0.055,-0.043 0.055,-0.078 l 0,-0.757 c 0,-0.019 -0.008,-0.027 -0.02,-0.027 -0.004,0 -0.015,0.008 -0.035,0.02 -0.059,0.058 -0.146,0.105 -0.26,0.145 -0.122,0.043 -0.233,0.062 -0.327,0.062 -0.343,0 -0.63,-0.18 -0.76,-0.482 -0.043,-0.098 -0.063,-0.204 -0.063,-0.317 0,-0.224 0.083,-0.404 0.248,-0.545 0.153,-0.129 0.343,-0.196 0.567,-0.196 0.256,0 0.453,0.071 0.599,0.216 0.012,0.015 0.023,0.023 0.031,0.023 C -0.008,0.803 0,0.78 0,0.729 L 0,0 z"
             id="path122083"
             style="fill:#ffffff;fill-opacity:1;fill-rule:nonzero;stroke:none" />
        </g>
        <path
           d="m 49.008,293.21 0.768,0 0,-2.939 -0.768,0 0,2.939 z"
           id="path122085"
           style="fill:#ffffff;fill-opacity:1;fill-rule:nonzero;stroke:none" />
        <g
           transform="translate(52.567505,290.2711)"
           id="g122087">
          <path
             d="m 0,0 -1.41,1.798 0,-1.798 -0.768,0 0,2.939 0.768,0 L 0,1.14 0,2.939 0.768,2.939 0.768,0 0,0 z"
             id="path122089"
             style="fill:#ffffff;fill-opacity:1;fill-rule:nonzero;stroke:none" />
        </g>
        <g
           transform="translate(53.8741,290.2711)"
           id="g122091">
          <path
             d="m 0,0 0,2.939 0.256,0 0.043,0.121 1.166,0 -0.043,-0.121 0.256,0 0,-0.647 -0.91,0 0,-0.49 0.863,0 0,-0.646 -0.863,0 0,-0.51 0.91,0 L 1.678,0 0,0 z"
             id="path122093"
             style="fill:#ffffff;fill-opacity:1;fill-rule:nonzero;stroke:none" />
        </g>
        <g
           transform="translate(65.1922,285.6741)"
           id="g122095">
          <path
             d="m 0,0 c -5.273,-0.57 -10.546,-1.141 -15.819,-1.71 -0.196,2.202 -0.294,3.304 -0.489,5.506 5.257,0.298 10.515,0.597 15.771,0.895 C -0.322,2.815 -0.215,1.877 0,0"
             id="path122097"
             style="fill:#0994dc;fill-opacity:1;fill-rule:nonzero;stroke:none" />
        </g>
        <g
           transform="translate(51.454102,287.7953)"
           id="g122099">
          <path
             d="m 0,0 c 0.011,-0.115 0.02,-0.22 0.029,-0.318 0.009,-0.098 0.018,-0.19 0.026,-0.279 0.008,-0.089 0.016,-0.175 0.024,-0.26 0.008,-0.086 0.016,-0.171 0.024,-0.26 0.008,-0.089 0.016,-0.181 0.025,-0.279 0.009,-0.099 0.019,-0.204 0.03,-0.318 0.12,0.011 0.23,0.022 0.331,0.032 0.102,0.009 0.196,0.018 0.288,0.027 0.092,0.008 0.181,0.017 0.273,0.026 0.092,0.008 0.186,0.018 0.288,0.027 0.102,0.01 0.211,0.02 0.331,0.031 C 1.659,-1.456 1.651,-1.37 1.643,-1.285 1.635,-1.2 1.627,-1.115 1.616,-1.001 1.73,-1.017 1.816,-1.029 1.902,-1.04 1.988,-1.052 2.074,-1.064 2.188,-1.079 2.2,-1.203 2.206,-1.266 2.218,-1.39 2.229,-1.513 2.23,-1.615 2.217,-1.699 2.204,-1.782 2.178,-1.849 2.136,-1.901 2.095,-1.953 2.037,-1.99 1.961,-2.018 1.886,-2.046 1.793,-2.064 1.68,-2.075 1.565,-2.087 1.461,-2.097 1.364,-2.107 1.268,-2.117 1.178,-2.126 1.091,-2.135 1.003,-2.144 0.918,-2.152 0.831,-2.161 0.743,-2.17 0.653,-2.179 0.557,-2.189 0.46,-2.199 0.357,-2.209 0.242,-2.22 0.128,-2.232 0.034,-2.233 -0.045,-2.221 c -0.079,0.013 -0.143,0.04 -0.194,0.084 -0.051,0.044 -0.089,0.105 -0.117,0.188 -0.028,0.083 -0.047,0.187 -0.059,0.314 -0.01,0.115 -0.02,0.219 -0.028,0.316 -0.009,0.096 -0.017,0.186 -0.025,0.273 -0.008,0.087 -0.016,0.173 -0.024,0.26 -0.008,0.087 -0.016,0.177 -0.025,0.273 -0.009,0.096 -0.018,0.2 -0.028,0.315 -0.012,0.128 -0.013,0.234 0,0.32 0.013,0.086 0.039,0.153 0.081,0.205 0.042,0.052 0.1,0.088 0.175,0.114 0.075,0.025 0.168,0.039 0.282,0.046 0.114,0.008 0.218,0.015 0.315,0.021 0.096,0.006 0.186,0.011 0.273,0.017 0.088,0.006 0.173,0.011 0.26,0.017 0.087,0.005 0.177,0.01 0.274,0.017 0.097,0.006 0.2,0.013 0.315,0.02 C 1.544,0.587 1.638,0.584 1.717,0.569 1.796,0.554 1.86,0.526 1.911,0.482 1.961,0.437 2,0.377 2.028,0.296 2.056,0.215 2.075,0.115 2.087,-0.009 2.096,-0.109 2.101,-0.159 2.111,-0.258 2,-0.286 1.918,-0.307 1.835,-0.328 1.752,-0.349 1.669,-0.37 1.559,-0.398 1.55,-0.298 1.543,-0.222 1.536,-0.147 1.529,-0.071 1.521,0.005 1.512,0.105 1.391,0.097 1.282,0.089 1.18,0.082 1.079,0.075 0.985,0.068 0.893,0.062 0.801,0.056 0.711,0.05 0.619,0.043 0.527,0.037 0.433,0.03 0.331,0.023 0.23,0.016 0.121,0.008 0,0"
             id="path122101"
             style="fill:#ffffff;fill-opacity:1;fill-rule:nonzero;stroke:none" />
        </g>
        <g
           transform="translate(54.563599,288.1698)"
           id="g122103">
          <path
             d="m 0,0 c 0.097,0.006 0.17,0.012 0.243,0.016 0.073,0.005 0.145,0.01 0.242,0.016 0.011,-0.115 0.022,-0.22 0.031,-0.318 0.01,-0.099 0.019,-0.19 0.027,-0.279 0.009,-0.088 0.017,-0.173 0.025,-0.258 0.009,-0.085 0.017,-0.17 0.026,-0.258 0.008,-0.088 0.017,-0.18 0.026,-0.278 0.01,-0.097 0.02,-0.202 0.031,-0.316 0.124,0.012 0.235,0.022 0.34,0.032 0.104,0.009 0.201,0.018 0.295,0.027 0.094,0.009 0.186,0.017 0.28,0.027 0.094,0.008 0.191,0.018 0.295,0.027 0.104,0.01 0.215,0.02 0.339,0.032 C 2.208,-1.607 2.214,-1.665 2.22,-1.724 2.225,-1.781 2.231,-1.839 2.239,-1.918 2.123,-1.929 2.015,-1.94 1.913,-1.95 1.811,-1.96 1.715,-1.97 1.622,-1.979 1.53,-1.988 1.441,-1.997 1.353,-2.006 1.265,-2.015 1.179,-2.023 1.091,-2.032 1.003,-2.04 0.914,-2.049 0.821,-2.058 0.729,-2.067 0.632,-2.077 0.53,-2.087 0.428,-2.097 0.32,-2.108 0.204,-2.12 0.192,-1.997 0.182,-1.884 0.171,-1.777 0.161,-1.67 0.151,-1.571 0.142,-1.474 0.133,-1.378 0.124,-1.286 0.115,-1.195 0.106,-1.104 0.098,-1.014 0.089,-0.923 0.08,-0.832 0.071,-0.74 0.062,-0.644 0.053,-0.548 0.043,-0.448 0.033,-0.342 0.023,-0.235 0.012,-0.123 0,0"
             id="path122105"
             style="fill:#ffffff;fill-opacity:1;fill-rule:nonzero;stroke:none" />
        </g>
        <g
           transform="translate(57.871506,286.7435)"
           id="g122107">
          <path
             d="M 0,0 C 0.11,0.01 0.209,0.02 0.301,0.029 0.393,0.037 0.479,0.045 0.562,0.053 0.646,0.061 0.727,0.068 0.81,0.076 0.894,0.084 0.979,0.092 1.072,0.101 1.164,0.109 1.263,0.119 1.372,0.129 1.361,0.236 1.351,0.334 1.342,0.426 1.332,0.518 1.323,0.603 1.315,0.685 1.306,0.768 1.298,0.848 1.29,0.927 1.282,1.007 1.273,1.086 1.264,1.168 1.256,1.252 1.247,1.338 1.238,1.43 1.228,1.522 1.218,1.622 1.206,1.73 1.303,1.737 1.376,1.742 1.449,1.747 1.522,1.752 1.595,1.757 1.692,1.763 1.704,1.641 1.716,1.533 1.726,1.432 1.737,1.332 1.747,1.239 1.756,1.148 1.765,1.058 1.775,0.971 1.784,0.881 1.793,0.79 1.803,0.698 1.814,0.599 1.824,0.499 1.835,0.392 1.847,0.272 1.86,0.15 1.856,0.056 1.83,-0.017 1.804,-0.09 1.757,-0.142 1.683,-0.178 1.609,-0.215 1.509,-0.236 1.379,-0.249 1.274,-0.259 1.18,-0.268 1.092,-0.277 1.004,-0.286 0.923,-0.294 0.843,-0.302 0.764,-0.31 0.686,-0.318 0.607,-0.326 0.528,-0.333 0.446,-0.341 0.358,-0.35 0.27,-0.359 0.176,-0.368 0.072,-0.379 -0.059,-0.391 -0.161,-0.39 -0.24,-0.368 c -0.079,0.022 -0.135,0.065 -0.175,0.134 -0.04,0.069 -0.063,0.164 -0.076,0.291 -0.012,0.123 -0.023,0.235 -0.034,0.339 -0.01,0.103 -0.02,0.199 -0.029,0.293 -0.01,0.094 -0.019,0.185 -0.029,0.279 -0.009,0.094 -0.018,0.19 -0.029,0.295 -0.01,0.104 -0.022,0.216 -0.034,0.342 0.096,0.007 0.168,0.012 0.24,0.017 0.072,0.005 0.144,0.01 0.24,0.016 0.012,-0.111 0.022,-0.212 0.031,-0.307 0.01,-0.094 0.019,-0.182 0.027,-0.267 C -0.099,0.979 -0.091,0.898 -0.082,0.817 -0.074,0.735 -0.066,0.654 -0.057,0.57 -0.049,0.485 -0.04,0.398 -0.031,0.304 -0.021,0.21 -0.011,0.11 0,0"
             id="path122109"
             style="fill:#ffffff;fill-opacity:1;fill-rule:nonzero;stroke:none" />
        </g>
        <g
           transform="translate(61.322693,287.5434)"
           id="g122111">
          <path
             d="m 0,0 c 0.01,-0.096 0.018,-0.169 0.026,-0.241 0.008,-0.073 0.016,-0.146 0.026,-0.244 0.108,0.01 0.202,0.02 0.29,0.028 0.088,0.008 0.169,0.016 0.249,0.023 0.081,0.008 0.162,0.015 0.25,0.024 0.087,0.008 0.181,0.017 0.289,0.026 0.082,0.008 0.139,0.022 0.175,0.05 0.035,0.028 0.048,0.072 0.04,0.141 C 1.339,-0.137 1.336,-0.109 1.33,-0.053 1.323,0.014 1.3,0.054 1.26,0.076 1.219,0.096 1.16,0.099 1.078,0.092 0.971,0.083 0.876,0.075 0.788,0.067 0.701,0.06 0.62,0.053 0.539,0.046 0.458,0.039 0.377,0.032 0.29,0.025 0.202,0.017 0.108,0.009 0,0 m -0.081,0.76 c 0.009,-0.09 0.016,-0.158 0.024,-0.225 0.007,-0.067 0.014,-0.134 0.023,-0.223 0.108,0.008 0.203,0.016 0.29,0.023 0.088,0.007 0.169,0.014 0.25,0.02 0.081,0.006 0.161,0.013 0.249,0.019 0.088,0.008 0.182,0.015 0.29,0.024 0.144,0.011 0.212,0.039 0.2,0.148 C 1.237,0.616 1.234,0.651 1.225,0.721 1.214,0.831 1.146,0.848 0.997,0.838 0.889,0.83 0.795,0.823 0.707,0.817 0.619,0.81 0.538,0.804 0.458,0.799 0.377,0.793 0.296,0.787 0.208,0.781 0.121,0.775 0.026,0.768 -0.081,0.76 m -0.51,0.282 c 0.118,0.008 0.226,0.015 0.328,0.022 0.102,0.007 0.197,0.014 0.289,0.02 C 0.118,1.09 0.207,1.096 0.295,1.102 0.384,1.108 0.473,1.114 0.564,1.12 0.656,1.127 0.751,1.133 0.853,1.14 0.955,1.147 1.064,1.154 1.182,1.162 1.288,1.169 1.376,1.164 1.448,1.144 1.52,1.124 1.575,1.089 1.615,1.037 1.655,0.986 1.679,0.917 1.689,0.83 1.699,0.741 1.704,0.697 1.714,0.609 1.723,0.525 1.7,0.453 1.649,0.396 1.597,0.339 1.412,0.27 1.412,0.27 1.412,0.269 1.618,0.228 1.684,0.173 1.75,0.118 1.79,0.042 1.801,-0.051 1.811,-0.145 1.816,-0.192 1.827,-0.287 1.836,-0.369 1.821,-0.44 1.781,-0.5 1.742,-0.559 1.678,-0.607 1.591,-0.644 1.504,-0.68 1.392,-0.705 1.256,-0.719 1.147,-0.729 1.047,-0.739 0.952,-0.749 0.858,-0.758 0.77,-0.767 0.685,-0.775 0.599,-0.784 0.517,-0.792 0.435,-0.8 0.353,-0.808 0.271,-0.817 0.186,-0.825 0.101,-0.833 0.012,-0.842 -0.082,-0.852 c -0.094,-0.009 -0.195,-0.019 -0.304,-0.029 -0.013,0.113 -0.024,0.217 -0.034,0.313 -0.01,0.098 -0.02,0.189 -0.029,0.276 -0.01,0.087 -0.018,0.17 -0.027,0.252 -0.009,0.082 -0.017,0.163 -0.026,0.245 -0.009,0.082 -0.018,0.165 -0.027,0.251 -0.009,0.087 -0.019,0.178 -0.029,0.274 -0.01,0.097 -0.021,0.2 -0.033,0.312"
             id="path122113"
             style="fill:#ffffff;fill-opacity:1;fill-rule:nonzero;stroke:none" />
        </g>
        <g
           transform="translate(59.816406,291.3231)"
           id="g122115">
          <path
             d="m 0,0 0,-1.058 c 0,-0.039 -0.008,-0.055 -0.039,-0.055 l -0.807,0 c -0.027,0 -0.043,0.02 -0.043,0.047 l 0,1.058 c 0,0.043 -0.016,0.059 -0.051,0.059 l -1.046,0 c -0.031,0 -0.047,0.02 -0.047,0.055 l 0,0.802 c 0,0.032 0.012,0.047 0.043,0.047 l 1.054,0 c 0.031,0 0.047,0.016 0.047,0.051 l 0,0.909 c 0,0.024 0.016,0.039 0.039,0.039 l 0.803,0 C -0.016,1.954 0,1.942 0,1.915 L 0,1.006 C 0,0.964 0.008,0.955 0.043,0.955 l 1.055,0 c 0.031,0 0.043,-0.015 0.043,-0.051 l 0,-0.806 C 1.141,0.071 1.125,0.051 1.098,0.051 l -1.043,0 C 0.012,0.051 0,0.043 0,0"
             id="path122117"
             style="fill:#ffffff;fill-opacity:1;fill-rule:nonzero;stroke:none" />
        </g>
      </g>
    </g>
  </g>
</svg>
